src/extras-openmoji/ui-element/E24B.svg

<svg id="emoji" viewBox="0 0 72 72" xmlns="http://www.w3.org/2000/svg">
  <g id="grid">
    <path fill="#b3b3b3" d="M68,4V68H4V4H68m4-4H0V72H72V0Z"/>
    <path fill="none" stroke="#00a5ff" stroke-miterlimit="10" stroke-width="0.1" d="M12.923,10.9583H59.0769A1.9231,1.9231,0,0,1,61,12.8814V59.0352a1.9231,1.9231,0,0,1-1.9231,1.9231H12.9231A1.9231,1.9231,0,0,1,11,59.0352V12.8813A1.923,1.923,0,0,1,12.923,10.9583Z"/>
    <rect x="16" y="4" rx="2.2537" width="40" height="64" fill="none" stroke="#00a5ff" stroke-miterlimit="10" stroke-width="0.1"/>
    <rect x="16" y="4" rx="2.2537" width="40" height="64" transform="translate(72) rotate(90)" fill="none" stroke="#00a5ff" stroke-miterlimit="10" stroke-width="0.1"/>
    <circle cx="36" cy="36" r="29" fill="none" stroke="#00a5ff" stroke-miterlimit="10" stroke-width="0.1"/>
  </g>
  <g id="color">
    <ellipse cx="46.5" cy="39.5" rx="17.5" ry="17.5" transform="matrix(0.7071 -0.7071 0.7071 0.7071 -14.3112 44.4497)" fill="#FCEA2B" stroke="none"/>
    <path fill="#F1B31C" stroke="none" d="M47.5607,54.7028c-0.789,0.789-1.6092,1.527-2.4482,2.231c4.9292,0.3899,9.9915-1.289,13.762-5.0594 c6.8342-6.8342,6.8342-17.9146,0-24.7487c-0.1168-0.1168-0.2441-0.2156-0.3634-0.3284 C58.8815,36.8519,55.2364,47.0271,47.5607,54.7028z"/>
    <ellipse cx="19" cy="54" rx="8" ry="8" transform="matrix(0.7071 -0.7071 0.7071 0.7071 -32.6188 29.2513)" fill="#FCEA2B" stroke="none"/>
    <path fill="#F1B31C" stroke="none" d="M19.4849,60.9498c-0.3607,0.3607-0.7357,0.6981-1.1192,1.0199c2.2534,0.1782,4.5675-0.5892,6.2912-2.3129 c3.1242-3.1242,3.1242-8.1895,0-11.3137c-0.0534-0.0534-0.1116-0.0985-0.1661-0.1501 C24.6601,52.7895,22.9938,57.441,19.4849,60.9498z"/>
    <ellipse cx="18" cy="21" rx="11" ry="11" transform="matrix(0.7071 -0.7071 0.7071 0.7071 -9.5772 18.8787)" fill="#FCEA2B" stroke="none"/>
    <path fill="#F1B31C" stroke="none" d="M18.6667,30.556c-0.496,0.496-1.0115,0.9598-1.5389,1.4023c3.0984,0.2451,6.2804-0.8102,8.6504-3.1802 c4.2958-4.2958,4.2958-11.2606,0-15.5563c-0.0734-0.0734-0.1535-0.1355-0.2284-0.2064 C25.7826,19.3355,23.4914,25.7313,18.6667,30.556z"/>
  </g>
  <g id="hair"/>
  <g id="skin"/>
  <g id="skin-shadow"/>
  <g id="line">
    <circle cx="19" cy="54" r="8" fill="none" stroke="#000000" stroke-linecap="round" stroke-linejoin="round" stroke-miterlimit="10" stroke-width="2"/>
    <circle cx="46.5" cy="39.5" r="17.5" fill="none" stroke="#000000" stroke-linecap="round" stroke-linejoin="round" stroke-miterlimit="10" stroke-width="2"/>
    <circle cx="18" cy="21" r="11" fill="none" stroke="#000000" stroke-linecap="round" stroke-linejoin="round" stroke-miterlimit="10" stroke-width="2"/>
  </g>
</svg>

<svg viewBox="0 0 72 72" xmlns="http://www.w3.org/2000/svg"><path fill="#b3b3b3" d="M68 4v64H4V4h64m4-4H0v72h72V0z"/><path fill="none" stroke="#00a5ff" stroke-miterlimit="10" stroke-width=".1" d="M12.923 10.958h46.154A1.923 1.923 0 0161 12.881v46.154a1.923 1.923 0 01-1.923 1.923H12.923A1.923 1.923 0 0111 59.035V12.881a1.923 1.923 0 011.923-1.923z"/><rect x="16" y="4" rx="2.254" width="40" height="64" fill="none" stroke="#00a5ff" stroke-miterlimit="10" stroke-width=".1"/><rect x="16" y="4" rx="2.254" width="40" height="64" transform="rotate(90 36 36)" fill="none" stroke="#00a5ff" stroke-miterlimit="10" stroke-width=".1"/><circle cx="36" cy="36" r="29" fill="none" stroke="#00a5ff" stroke-miterlimit="10" stroke-width=".1"/><g stroke-linecap="round" stroke-miterlimit="10" stroke-width="6" stroke="#fff" fill="none" stroke-linejoin="round"><circle cx="19" cy="54" r="8"/><circle cx="46.5" cy="39.5" r="17.5"/><circle cx="18" cy="21" r="11"/></g><circle cx="46.5" cy="39.5" transform="rotate(-45.001 46.5 39.5)" fill="#FCEA2B" r="17.5"/><path fill="#F1B31C" d="M47.56 54.703a37.912 37.912 0 01-2.448 2.23c4.93.39 9.992-1.288 13.762-5.059 6.835-6.834 6.835-17.914 0-24.748-.116-.117-.244-.216-.363-.329.37 10.055-3.275 20.23-10.95 27.906z"/><circle cx="19" cy="54" transform="rotate(-45.001 19 54)" fill="#FCEA2B" r="8"/><path fill="#F1B31C" d="M19.485 60.95c-.36.36-.736.698-1.12 1.02a7.977 7.977 0 006.292-2.313 8 8 0 000-11.314c-.053-.053-.112-.098-.166-.15a17.093 17.093 0 01-5.006 12.757z"/><circle cx="18" cy="21" transform="rotate(-45.001 18 21)" fill="#FCEA2B" r="11"/><path fill="#F1B31C" d="M18.667 30.556a23.53 23.53 0 01-1.54 1.402c3.1.245 6.281-.81 8.651-3.18 4.296-4.296 4.296-11.26 0-15.556-.073-.074-.153-.136-.228-.207.233 6.32-2.059 12.716-6.883 17.541z"/><g fill="none" stroke="#000" stroke-linecap="round" stroke-linejoin="round" stroke-miterlimit="10" stroke-width="2"><circle cx="19" cy="54" r="8"/><circle cx="46.5" cy="39.5" r="17.5"/><circle cx="18" cy="21" r="11"/></g></svg>
